source/img/cart-icon.svg

<svg width="30" height="28" viewBox="0 0 30 28" fill="none" xmlns="http://www.w3.org/2000/svg">
<path d="M0 1.93616H3.88425C4.33141 1.93616 4.72423 2.23303 4.84628 2.66321L9.07372 17.5635C9.19577 17.9937 9.58859 18.2906 10.0358 18.2906H24.7568C25.2075 18.2906 25.6025 17.9892 25.7214 17.5545L28.6542 6.83436C28.8283 6.19804 28.3494 5.57048 27.6897 5.57048H5.67111" stroke="#A8A8A8" stroke-width="2"/>
<path d="M15 23.9125C15 25.3568 13.8602 26.49 12.5 26.49C11.1398 26.49 10 25.3568 10 23.9125C10 22.4682 11.1398 21.335 12.5 21.335C13.8602 21.335 15 22.4682 15 23.9125Z" stroke="#A8A8A8" stroke-width="2"/>
<path d="M24 23.9125C24 25.3568 22.8602 26.49 21.5 26.49C20.1398 26.49 19 25.3568 19 23.9125C19 22.4682 20.1398 21.335 21.5 21.335C22.8602 21.335 24 22.4682 24 23.9125Z" stroke="#A8A8A8" stroke-width="2"/>
</svg>

<svg width="30" height="28" fill="none" xmlns="http://www.w3.org/2000/svg"><path d="M0 1.936h3.884a1 1 0 01.962.727l4.228 14.9a1 1 0 00.962.728h14.72a1 1 0 00.965-.736l2.933-10.72a1 1 0 00-.964-1.265H5.67M15 23.913c0 1.444-1.14 2.577-2.5 2.577S10 25.357 10 23.913c0-1.445 1.14-2.578 2.5-2.578s2.5 1.133 2.5 2.578zm9 0c0 1.444-1.14 2.577-2.5 2.577S19 25.357 19 23.913c0-1.445 1.14-2.578 2.5-2.578s2.5 1.133 2.5 2.578z" stroke="#A8A8A8" stroke-width="2"/></svg>
